src/assets/images/illustrations/error-blue.svg

<svg width="166" height="168" viewBox="0 0 166 168" fill="none" xmlns="http://www.w3.org/2000/svg">
<circle cx="83" cy="83" r="83" fill="#EBF7FA"/>
<g clip-path="url(#clip0_1884_5624)">
<path d="M88.038 59.9418C91.9777 55.3134 98.0521 46.0164 102.142 41.2551C102.33 41.0357 102.451 40.7669 102.491 40.4805C102.531 40.1941 102.488 39.9023 102.367 39.6397C102.246 39.3772 102.052 39.155 101.808 38.9995C101.564 38.8441 101.281 38.7619 100.992 38.7629H93.5513L100.571 22.8804C100.873 22.2023 99.9475 21.6619 99.5041 22.2556L82.5267 44.9881C82.4165 45.1356 82.352 45.3124 82.3414 45.4963C82.3308 45.6802 82.3744 45.8632 82.4669 46.0225C82.5593 46.1819 82.6966 46.3105 82.8615 46.3924C83.0264 46.4743 83.2117 46.5059 83.3945 46.4832L91.8188 45.4449L86.8062 59.2224C86.5337 59.981 87.5151 60.5556 88.038 59.9418Z" fill="#65C2CC"/>
<path d="M53.0006 88.1317C53.8865 83.5838 54.4456 75.135 55.3827 70.4422C55.4258 70.2259 55.406 70.0018 55.3254 69.7966C55.2449 69.5913 55.1072 69.4135 54.9286 69.2843C54.75 69.1551 54.5381 69.0799 54.3181 69.0677C54.098 69.0556 53.8791 69.1069 53.6874 69.2157L48.7412 72.0018L47.4662 58.8209C47.4109 58.2584 46.5964 58.2453 46.523 58.8058L43.7477 80.2564C43.7295 80.3957 43.7527 80.5373 43.8143 80.6636C43.8759 80.7899 43.9733 80.8952 44.0943 80.9665C44.2153 81.0378 44.3546 81.072 44.4948 81.0647C44.635 81.0574 44.77 81.009 44.883 80.9255L50.0906 77.0819L51.9116 88.1096C52.0162 88.7203 52.883 88.7354 53.0006 88.1317Z" fill="#65C2CC"/>
<path d="M113.497 90.3747C115.454 88.174 118.494 83.734 120.525 81.4707C120.619 81.3663 120.68 81.2373 120.703 81.099C120.725 80.9607 120.707 80.8189 120.652 80.6904C120.596 80.562 120.504 80.4523 120.388 80.3744C120.271 80.2965 120.135 80.2538 119.995 80.2512L116.388 80.1742L119.956 72.5526C120.108 72.2271 119.667 71.9564 119.445 72.2391L110.985 83.0729C110.93 83.1432 110.897 83.2282 110.89 83.3172C110.883 83.4062 110.902 83.4953 110.945 83.5735C110.988 83.6516 111.053 83.7154 111.133 83.7568C111.212 83.7982 111.301 83.8154 111.39 83.8063L115.482 83.3895L112.909 90.0101C112.769 90.378 113.238 90.6668 113.497 90.3747Z" fill="#65C2CC"/>
<path d="M127.374 160.72L42.6848 167.864C40.6588 168.035 38.6232 167.674 36.7791 166.817C34.9349 165.96 33.3459 164.637 32.169 162.978C30.9921 161.319 30.2679 159.382 30.0679 157.357C29.8679 155.332 30.1991 153.291 31.0287 151.433L66.9081 71.0831C68.6708 67.1349 72.2947 64.5601 76.6014 64.1978C80.9081 63.8356 84.9111 65.7655 87.3093 69.3625L136.122 142.566C137.25 144.258 137.918 146.216 138.059 148.246C138.2 150.276 137.809 152.307 136.926 154.14C136.043 155.972 134.697 157.543 133.022 158.696C131.347 159.849 129.4 160.546 127.374 160.716V160.72ZM77.1454 70.6041C76.2057 70.6762 75.3032 71.0027 74.5347 71.5486C73.7661 72.0945 73.1604 72.8393 72.7824 73.7032L36.902 154.054C36.5288 154.89 36.38 155.809 36.4701 156.72C36.5602 157.632 36.8863 158.504 37.416 159.25C37.9458 159.997 38.6609 160.593 39.4909 160.978C40.3209 161.364 41.237 161.526 42.1489 161.449L126.838 154.306C127.75 154.229 128.626 153.915 129.379 153.396C130.133 152.876 130.739 152.169 131.136 151.345C131.533 150.52 131.709 149.606 131.646 148.692C131.582 147.779 131.282 146.897 130.774 146.136L81.9649 72.9294C81.4477 72.1411 80.726 71.5083 79.8771 71.0987C79.0281 70.6891 78.0839 70.5182 77.1454 70.6041Z" fill="#BCE3EE"/>
<path d="M125.737 157.127L43.6526 164.082C37.4149 164.611 32.9121 158.224 35.4656 152.484L70.2409 74.2614C72.8724 68.3256 80.9814 67.64 84.5681 73.0468L131.877 144.315C135.347 149.546 131.965 156.598 125.737 157.127Z" fill="#BCE3EE"/>
<path d="M76.9435 142.599C76.8679 141.786 76.9548 140.966 77.1989 140.188C77.432 139.451 77.8142 138.771 78.3213 138.192C78.8496 137.598 79.4905 137.117 80.2061 136.778C80.9553 136.415 81.8157 136.191 82.7872 136.107C83.6847 136.018 84.5907 136.094 85.4617 136.33C86.2303 136.539 86.9487 136.904 87.5732 137.403C88.1688 137.889 88.6582 138.494 89.0102 139.181C89.3791 139.907 89.6002 140.7 89.6605 141.514C89.7368 142.321 89.6494 143.135 89.4035 143.906C89.1662 144.636 88.7837 145.308 88.2796 145.882C87.7468 146.482 87.0985 146.965 86.3745 147.301C85.5548 147.682 84.6742 147.909 83.7747 147.974C82.8027 148.056 81.9175 147.982 81.1189 147.75C80.3575 147.538 79.6462 147.172 79.0277 146.675C78.4349 146.195 77.9462 145.596 77.5922 144.917C77.2219 144.197 77.0011 143.408 76.9435 142.599ZM87.0888 130.585L77.6398 131.391L73.5812 98.8276L85.7071 97.7933L87.0888 130.585Z" fill="#65C2CC"/>
</g>
<defs>
<clipPath id="clip0_1884_5624">
<rect width="108.104" height="145.902" fill="white" transform="translate(30 22)"/>
</clipPath>
</defs>
</svg>

<svg width="166" height="168" fill="none" xmlns="http://www.w3.org/2000/svg"><circle cx="83" cy="83" r="83" fill="#EBF7FA"/><g clip-path="url(#a)"><path d="M88.038 59.942c3.94-4.629 10.014-13.926 14.104-18.687a1.511 1.511 0 0 0-1.15-2.492h-7.44l7.019-15.883c.302-.678-.623-1.218-1.067-.624L82.527 44.988a.94.94 0 0 0 .867 1.495l8.425-1.038-5.013 13.777c-.272.759.71 1.334 1.232.72ZM53 88.132c.886-4.548 1.446-12.997 2.383-17.69a1.15 1.15 0 0 0-1.696-1.226l-4.946 2.786-1.275-13.181c-.055-.563-.87-.576-.943-.015l-2.775 21.45a.717.717 0 0 0 1.135.67l5.208-3.844 1.82 11.028c.105.61.972.625 1.09.022ZM113.497 90.375c1.957-2.201 4.997-6.641 7.028-8.904a.734.734 0 0 0 .127-.78.735.735 0 0 0-.657-.44l-3.607-.077 3.568-7.621c.152-.326-.289-.597-.511-.314l-8.46 10.834a.454.454 0 0 0 .405.733l4.092-.416-2.573 6.62c-.14.368.329.657.588.365Z" fill="#65C2CC"/><path d="m127.374 160.72-84.69 7.144a11.682 11.682 0 0 1-10.515-4.886 11.702 11.702 0 0 1-1.14-11.545l35.88-80.35c1.762-3.948 5.386-6.523 9.692-6.885 4.307-.362 8.31 1.568 10.708 5.165l48.813 73.203a11.703 11.703 0 0 1-8.748 18.15v.004ZM77.145 70.604a5.194 5.194 0 0 0-4.363 3.1l-35.88 80.35a5.268 5.268 0 0 0 2.589 6.924c.83.386 1.746.548 2.658.471l84.689-7.143a5.258 5.258 0 0 0 4.298-2.961 5.268 5.268 0 0 0-.362-5.209l-48.81-73.207a5.2 5.2 0 0 0-4.819-2.325Z" fill="#BCE3EE"/><path d="m125.737 157.127-82.084 6.955c-6.238.529-10.74-5.858-8.187-11.598L70.24 74.261c2.631-5.935 10.74-6.621 14.327-1.214l47.309 71.268c3.47 5.231.088 12.283-6.14 12.812Z" fill="#BCE3EE"/><path d="M76.944 142.599a6.153 6.153 0 0 1 .255-2.411 5.586 5.586 0 0 1 1.122-1.996 5.909 5.909 0 0 1 1.885-1.414c.75-.363 1.61-.587 2.581-.671a7.424 7.424 0 0 1 2.675.223 5.835 5.835 0 0 1 2.111 1.073 5.576 5.576 0 0 1 1.437 1.778c.37.726.59 1.519.65 2.333a6.012 6.012 0 0 1-.257 2.392 5.632 5.632 0 0 1-1.123 1.976 5.832 5.832 0 0 1-1.906 1.419c-.82.381-1.7.608-2.6.673-.971.082-1.856.008-2.655-.224a5.84 5.84 0 0 1-2.091-1.075 5.582 5.582 0 0 1-1.436-1.758 6.001 6.001 0 0 1-.648-2.318Zm10.145-12.014-9.45.806-4.058-32.563 12.126-1.035 1.382 32.792Z" fill="#65C2CC"/></g><defs><clipPath id="a"><path fill="#fff" transform="translate(30 22)" d="M0 0h108.104v145.902H0z"/></clipPath></defs></svg>
